X: 1186
T: Kadifeden Kesesi
C: (Anonim)
O: Turkey
F: http://compmusic.upf.edu/node/140
N: ussak--turku--nimsofyan--kadifeden_kesesi--
N: makam= ussak
N: form= turku
N: usul= nimsofyan = 2/4
M: 2/4
L: 1/16
K: C _2/4B   
Q: 1/4=87
%%MIDI tuningsystem comma53
e2fg f2e2  | e2{f}ef e2d2  | d2ef e2d2  | \
w:  ARANAĞME  |   |   | 
edcd c4  | d2ef e2d2  | 
w:   |   | 
eddc d4  | edcd c2d2  | dcBA B2cd  | cBA2 c2d2  | 
w:   |   |   |   | 
dedc d4  | edcd c2d2  | dcBA B2cd  | cBAG A4  | 
w:   |   |   |   | 
B4 c4  | d2{e}dc B2{c}BA  | A8  | e2f2 {g}f2e2  | \
w:   |   |   |  Ka di  | 
e2e4d2  | d2ef e2d2  | 
w:  fe den   |  ke se  | 
edcd c4  | d2{f}e2 e2d2  | eddc d4  | edcd c2d2  | \
w:  si    |  Kah *  *  ve  |  den  *  *  *  ge  |  lir  *  *  *  se  | 
dcBA B2cd  | 
w:  si    | 
cBA2 c2d2  | d3/2e/d/e/c d3B  | c3d cBBA  | A8  | \
w:  *  *  *  O tur  |  muş  *  *  *  *  ku  |  mar  *  oy  |  nar    | 
d2{e}dc B2{c}BA  | 
w:  Ci *  *  *  ğe  | 
A2AG A4  | e3d d2{e}dc  | BAB2 c4  | d2{e}dc B2{c}BA  | \
w:  ri *  *  min   |  ah  *  ci *  ğe  |  ri *  *  min   |  kö *  *  *  şe  | 
A4 GABc  | 
w:  si   SAZ  | 
d4 c2d2  | d4 d4  | edcd c2d2  | dcBA B2cd  | \
w:  *  A man   |  yol la   |  Be *  yoğ *  lu na   |  yol *  *  *  la    | 
cBA2 c2d2  | 
w:  *  *  *  A man   | 
d4 d4  | edcd c2d2  | dcBA B2cd  | cBA2 A4  | \
w:  yol la   |  Ka *  dı *  kö ye   |  yol *  *  *  la    |  Yol *  *  la   | 
B4 c4  | 
w:  yol la   | 
d2{e}dc B2{c}BA  | A4 E4  | A4 e2f2  | f2{g}fe f4  | \
w:  yâr  *  *  *  yol  |  la   SAZ  |   |   | 
gfef e2fg  | 
w:   | 
fede d2ef  | edc2 d2e2  | e2{f}ed e4  | \
w:   |   |   | 
fede d2ef  | 
w:   | 
edcd c2d2  | dcBA B2c2  | dedc d4  | edcd c2d2  | 
w:   |   |   |   | 
dcBA B2cd  | c2{d}BA A4  | B4 c4  | d2{e}dc B2{c}BA  | A8  | \
w:   |   |   |   |   | 
e2f2 {g}f2e2  | 
w:  Ka di  | 
e2e4d2  | d2ef e2d2  | edcd c4  | d2{f}e2 e2d2  | \
w:  fe den   |  ke se  |  si    |  Kah *  *  ve  | 
eddc d4  | 
w:  den  *  *  *  ge  | 
edcd c2d2  | dcBA B2cd  | cBA2 c2d2  | d3/2e/d/e/c d3B  | 
w:  lir  *  *  *  se  |  si    |  *  *  *  O tur  |  muş  *  *  *  *  ku  | 
c3d cBBA  | A8  | d2{e}dc B2{c}BA  | A2AG A4  | \
w:  mar  *  oy  |  nar    |  Ci *  *  *  ğe  |  ri *  *  min   | 
e3d d2{e}dc  | 
w:  ah  *  ci *  ğe  | 
BAB2 c4  | d2{e}dc B2{c}BA  | A4 GABc  | \
w:  ri *  *  min   |  kö *  *  *  şe  |  si   SAZ  | 
d4 c2d2  | d4 d4  | edcd c2d2  | 
w:  *  A man   |  yol la   |  Be *  yoğ *  lu na   | 
dcBA B2cd  | cBA2 c2d2  | d4 d4  | edcd c2d2  | \
w:  yol *  *  *  la    |  *  *  *  A man   |  yol la   |  Ka *  dı *  kö ye   | 
dcBA B2cd  | 
w:  yol *  *  *  la    | 
cBA2 A4  | B4 c4  | d2{e}dc B2{c}BA  | A4 E4  | \
w:  Yol *  *  la   |  yol la   |  yâr  *  *  *  yol  |  la   SAZ  | 
A4 |
w:   | 


